X:1
T:Title
%%score { 1 | 2 }
L:1/8
Q:1/4=104
M:4/4
K:Ab
V:1 treble nm="Grand Piano"
V:2 bass 
V:1
 [A,C]>[B,D] [CE]>[DF] [CE]2 [CA]>[DB] | [Ec]4 [CA]4 | F>F F>[EG] [FA]>[FA] [EG]>[DF] | [CE]6 z2 | %4
w: Howard~E.~Smith * * * * * *||||
 [A,C]>[B,D] [CE]>[DF] [CE]>[CE] [CA]>[DB] | [Ec]4 [CEA]4 | B>B B>A G>G c>B | [CA]6 z2 | %8
w: ||||
 B>B B>c d2 d2 | [Ec]4 [Ec]4 | [EB]>[EB] [EB]>[Ec] [A=d]2 [Ad]2 | [Ge]6 z2 | e>e e>d c2 c2 | %13
w: |||||
 [Fd]4 [Fd]4 | c>B A>G c2 B2 | [CA]6 z2 |] %16
w: |||
V:2
 [A,,E,]>[A,,E,] [A,,A,]>[A,,A,] [A,,A,]2 [A,,E,]>[A,,E,] | [A,,A,]4 [A,,A,]4 | %2
 [D,A,D]>[D,A,D] [D,A,D]>[D,A,] [D,D]>[D,D] [D,A,]>[D,A,] | [A,,A,]6 z2 | %4
 [A,,E,]>[A,,E,] [A,,A,]>[A,,A,] [A,,A,]>[A,,A,] [A,,E,]>[A,,E,] | [A,,A,]4 A,,4 | %6
 [E,DE]>[E,DE] [E,DE]>[E,CE] [E,B,E]>[E,B,E] [E,A,E]>[E,G,D] | [A,,A,]6 z2 | %8
 [E,G,E]>[E,G,E] [E,G,E]>[E,A,E] [E,B,E]2 [E,B,E]2 | [A,,A,]4 [A,,A,]4 | %10
 [B,,G,]>[B,,G,] [B,,G,]>[B,,A,] [B,,B,]2 [B,,B,]2 | [E,B,]6 z2 | %12
 [A,CA]>[A,CA] [A,CA]>[A,B,E] [A,E]2 [A,_G]2 | [D,A,]4 [D,A,]4 | %14
 [E,A,E]>[E,DE] [E,CE]>[E,B,E] [E,A,E]2 [E,G,D]2 | [A,,A,]6 z2 |] %16

